X:183
T:Maura Connolly's (reel)
C:Sean Ryan
B:CRE2.239 (gan ainm)
F:file ID: cre.2/183maura_c
N:Correct name supplied by Paul de Grae
Q:180
L:1/8
M:4/4
R:reel
K:Am
B|cBAG EGAc|BGG2 EG A2|cBAG E3^F|GEDG EA, A,2|
cBAG EGAc|BGG2 DGBd|cBcd eg^fa|gedB cAA:|
F|:A2 (3cBA aAcA|G2 Bd gdBG|A2ce a2 ba|(3g^fe dB cAAg|
a2ed cde^f|g^fga (3gfe dB|cBAG E3^F|GEDG EA, A,2:|

%%%

